groups/bicyclics/adamantyl.svg

<?xml version='1.0' encoding='iso-8859-1'?>
<svg version='1.1' baseProfile='full'
              xmlns='http://www.w3.org/2000/svg'
                      xmlns:rdkit='http://www.rdkit.org/xml'
                      xmlns:xlink='http://www.w3.org/1999/xlink'
                  xml:space='preserve'
width='256px' height='256px' viewBox='0 0 256 256'>
<!-- END OF HEADER -->
<rect style='opacity:1.0;fill:#FFFFFF;stroke:none' width='256.0' height='256.0' x='0.0' y='0.0'> </rect>
<path class='bond-0 atom-0 atom-1' d='M 148.2,17.3 L 139.2,73.0' style='fill:none;fill-rule:evenodd;stroke:#000000;stroke-width:2.0px;stroke-linecap:butt;stroke-linejoin:miter;stroke-opacity:1' />
<path class='bond-1 atom-1 atom-2' d='M 139.2,73.0 L 88.6,98.1' style='fill:none;fill-rule:evenodd;stroke:#000000;stroke-width:2.0px;stroke-linecap:butt;stroke-linejoin:miter;stroke-opacity:1' />
<path class='bond-2 atom-2 atom-3' d='M 88.6,98.1 L 64.5,148.7' style='fill:none;fill-rule:evenodd;stroke:#000000;stroke-width:2.0px;stroke-linecap:butt;stroke-linejoin:miter;stroke-opacity:1' />
<path class='bond-3 atom-3 atom-4' d='M 64.5,148.7 L 108.0,191.7' style='fill:none;fill-rule:evenodd;stroke:#000000;stroke-width:2.0px;stroke-linecap:butt;stroke-linejoin:miter;stroke-opacity:1' />
<path class='bond-4 atom-4 atom-5' d='M 108.0,191.7 L 158.3,166.9' style='fill:none;fill-rule:evenodd;stroke:#000000;stroke-width:2.0px;stroke-linecap:butt;stroke-linejoin:miter;stroke-opacity:1' />
<path class='bond-5 atom-5 atom-6' d='M 158.3,166.9 L 182.8,116.1' style='fill:none;fill-rule:evenodd;stroke:#000000;stroke-width:2.0px;stroke-linecap:butt;stroke-linejoin:miter;stroke-opacity:1' />
<path class='bond-6 atom-6 atom-7' d='M 182.8,116.1 L 191.1,166.7' style='fill:none;fill-rule:evenodd;stroke:#000000;stroke-width:2.0px;stroke-linecap:butt;stroke-linejoin:miter;stroke-opacity:1' />
<path class='bond-7 atom-7 atom-8' d='M 191.1,166.7 L 140.2,191.8' style='fill:none;fill-rule:evenodd;stroke:#000000;stroke-width:2.0px;stroke-linecap:butt;stroke-linejoin:miter;stroke-opacity:1' />
<path class='bond-8 atom-8 atom-9' d='M 140.2,191.8 L 96.2,148.6' style='fill:none;fill-rule:evenodd;stroke:#000000;stroke-width:2.0px;stroke-linecap:butt;stroke-linejoin:miter;stroke-opacity:1' />
<path class='bond-9 atom-8 atom-10' d='M 140.2,191.8 L 115.8,242.8' style='fill:none;fill-rule:evenodd;stroke:#000000;stroke-width:2.0px;stroke-linecap:butt;stroke-linejoin:miter;stroke-opacity:1' />
<path class='bond-10 atom-6 atom-1' d='M 182.8,116.1 L 139.2,73.0' style='fill:none;fill-rule:evenodd;stroke:#000000;stroke-width:2.0px;stroke-linecap:butt;stroke-linejoin:miter;stroke-opacity:1' />
<path class='bond-11 atom-9 atom-2' d='M 96.2,148.6 L 88.6,98.1' style='fill:none;fill-rule:evenodd;stroke:#000000;stroke-width:2.0px;stroke-linecap:butt;stroke-linejoin:miter;stroke-opacity:1' />
<path class='bond-12 atom-10 atom-4' d='M 115.8,242.8 L 108.0,191.7' style='fill:none;fill-rule:evenodd;stroke:#000000;stroke-width:2.0px;stroke-linecap:butt;stroke-linejoin:miter;stroke-opacity:1' />
<path d='M 65.7,146.2 L 64.5,148.7 L 66.7,150.9' style='fill:none;stroke:#000000;stroke-width:2.0px;stroke-linecap:butt;stroke-linejoin:miter;stroke-miterlimit:10;stroke-opacity:1;' />
<path d='M 155.8,168.2 L 158.3,166.9 L 159.5,164.4' style='fill:none;stroke:#000000;stroke-width:2.0px;stroke-linecap:butt;stroke-linejoin:miter;stroke-miterlimit:10;stroke-opacity:1;' />
<path d='M 190.6,164.2 L 191.1,166.7 L 188.5,168.0' style='fill:none;stroke:#000000;stroke-width:2.0px;stroke-linecap:butt;stroke-linejoin:miter;stroke-miterlimit:10;stroke-opacity:1;' />
<path d='M 98.4,150.8 L 96.2,148.6 L 95.8,146.1' style='fill:none;stroke:#000000;stroke-width:2.0px;stroke-linecap:butt;stroke-linejoin:miter;stroke-miterlimit:10;stroke-opacity:1;' />
<path d='M 117.0,240.3 L 115.8,242.8 L 115.4,240.2' style='fill:none;stroke:#000000;stroke-width:2.0px;stroke-linecap:butt;stroke-linejoin:miter;stroke-miterlimit:10;stroke-opacity:1;' />
<path class='atom-1' d='M120.316,12.8 C119.979,14.887 122.769,15.3373 123.106,13.2504 C123.443,11.1634 126.233,11.6138 125.896,13.7007 C125.559,15.7877 128.349,16.2381 128.686,14.1511 C129.023,12.0641 131.813,12.5145 131.476,14.6015 C131.139,16.6885 133.929,17.1388 134.266,15.0519 C134.603,12.9649 137.393,13.4153 137.056,15.5022 C136.719,17.5892 139.509,18.0396 139.846,15.9526 C140.182,13.8656 142.972,14.316 142.636,16.403 C142.299,18.49 145.089,18.9403 145.425,16.8534 C145.762,14.7664 148.552,15.2168 148.215,17.3037 C147.878,19.3907 150.668,19.8411 151.005,17.7541 C151.342,15.6671 154.132,16.1175 153.795,18.2045 C153.458,20.2915 156.248,20.7418 156.585,18.6548 C156.922,16.5679 159.712,17.0182 159.375,19.1052 C159.038,21.1922 161.828,21.6426 162.165,19.5556 C162.502,17.4686 165.292,17.919 164.955,20.006 C164.618,22.0929 167.408,22.5433 167.745,20.4563 C168.082,18.3694 170.872,18.8197 170.535,20.9067 C170.198,22.9937 172.988,23.4441 173.325,21.3571 C173.662,19.2701 176.452,19.7205 176.115,21.8075' style='fill:none;stroke:#7F7F7F;stroke-width:2.0px;stroke-linecap:butt;stroke-linejoin:miter;stroke-opacity:1' />
</svg>

<svg height="256" viewBox="0 0 256 256" width="256" xmlns="http://www.w3.org/2000/svg"><path d="m0 0h256v256h-256z" fill="#fff"/><g fill="none" stroke-width="2"><path d="m148.2 17.3-9 55.7" stroke="#000"/><path d="m139.2 73-50.6 25.1" stroke="#000"/><path d="m88.6 98.1-24.1 50.6" stroke="#000"/><path d="m64.5 148.7 43.5 43" stroke="#000"/><path d="m108 191.7 50.3-24.8" stroke="#000"/><path d="m158.3 166.9 24.5-50.8" stroke="#000"/><path d="m182.8 116.1 8.3 50.6" stroke="#000"/><path d="m191.1 166.7-50.9 25.1" stroke="#000"/><path d="m140.2 191.8-44-43.2" stroke="#000"/><path d="m140.2 191.8-24.4 51" stroke="#000"/><path d="m182.8 116.1-43.6-43.1" stroke="#000"/><path d="m96.2 148.6-7.6-50.5" stroke="#000"/><path d="m115.8 242.8-7.8-51.1" stroke="#000"/><path d="m65.7 146.2-1.2 2.5 2.2 2.2" stroke="#000" stroke-miterlimit="10"/><path d="m155.8 168.2 2.5-1.3 1.2-2.5" stroke="#000" stroke-miterlimit="10"/><path d="m190.6 164.2.5 2.5-2.6 1.3" stroke="#000" stroke-miterlimit="10"/><path d="m98.4 150.8-2.2-2.2-.4-2.5" stroke="#000" stroke-miterlimit="10"/><path d="m117 240.3-1.2 2.5-.4-2.6" stroke="#000" stroke-miterlimit="10"/><path d="m120.316 12.8c-.337 2.087 2.453 2.537 2.79.45s3.127-1.636 2.79.451 2.453 2.537 2.79.45 3.127-1.636 2.79.451 2.453 2.537 2.79.45 3.127-1.637 2.79.45 2.453 2.538 2.79.451c.336-2.087 3.126-1.637 2.79.45-.337 2.087 2.453 2.537 2.789.45.337-2.087 3.127-1.636 2.79.451s2.453 2.537 2.79.45 3.127-1.636 2.79.451 2.453 2.537 2.79.45 3.127-1.637 2.79.45 2.453 2.538 2.79.451 3.127-1.637 2.79.45 2.453 2.537 2.79.45 3.127-1.636 2.79.451 2.453 2.537 2.79.45 3.127-1.636 2.79.451" stroke="#7f7f7f"/></g></svg>
